X: 33636
T: Rambler, The
R: jig
M: 6/8
K: Amajor
C/E/|FEC E2A|FEC E2 c/e/|fec ABc|BAF AFD|
FEC E2A|FEC E2 c/e/|fec ABc|BAA A2:|
c/d/|ece Ace|afa faf|ece fec|BcB Bcd|
ece Ace|afa faf|ece fec|ABA A2:|

